public/kulturmeglerne.svg

<svg width="574" height="574" viewBox="0 0 574 574" xmlns="http://www.w3.org/2000/svg" xmlns:xlink="http://www.w3.org/1999/xlink">
    <path id="Rounded-Rectangle" fill="#ffffff" fill-rule="evenodd" stroke="none" d="M 0 398 L 574 398 L 574 100 L 0 100 Z"/>
    <path id="Path" fill="#333333" fill-rule="evenodd" stroke="none" d="M 21.436001 373.626007 L 21.436001 124.960999 L 270.10202 124.960999 L 21.436001 373.626007 Z M 162.018005 265.544006 L 270.101013 373.626007 L 53.935001 373.626007 L 162.018005 265.544006 Z M 303.662994 124.960999 L 552.328003 124.960999 L 552.328003 373.626007 L 303.662994 124.960999 Z M 411.744995 265.544006 L 303.662994 373.626007 L 303.662994 157.460999 L 411.744995 265.544006 Z"/>
</svg>

<svg width="574" height="574" viewBox="0 0 574 574" xmlns="http://www.w3.org/2000/svg"><path fill="#fff" fill-rule="evenodd" d="M0 398h574V100H0Z"/><path fill="#333" fill-rule="evenodd" d="M21.436 373.626V124.961h248.666L21.436 373.626Zm140.582-108.082 108.083 108.082H53.935l108.083-108.082Zm141.645-140.583h248.665v248.665L303.663 124.961Zm108.082 140.583L303.663 373.626V157.461l108.082 108.083Z"/></svg>
